X:194
T: KOMM STILLER ABEND NIEDER AUF UNSRE KLEINE FLUR
N: B0229
O: Europa, Mitteleuropa, Deutschland
R: Tageszeiten - Lied, Abend
M: 6/8
L: 1/16
K: G
D2 | G4G2A3GA2 | B6A4
d2 | d2c2c2c2B2B2 | B6A4
D2 | G4G2A3GA2 | B6A4
D2 | E2c2B2A2G2F2 | A6G4

